X:1
T:The Conqueror’s Tread
T:The Conqueror’s Tread
T:Robert E. McNeill
T:Florence Potter, 1902
T:Public Domain Courtesy of the Cyber Hymnal™
T:Public Domain Courtesy of the Cyber Hymnal™
C:Robert E. McNeill
Z:Public Domain
Z:Courtesy of the Cyber Hymnal™
%%score ( 1 2 ) ( 3 4 )
L:1/8
Q:1/4=90
M:4/4
K:Eb
V:1 treble 
V:2 treble 
V:3 bass 
V:4 bass 
V:1
 [AB] | [Ge]2 [Ge]>[Ac] [GB]3 ([EG]/[EG]/) | ([DF][EG])[FA][Ac] [GB]2 [EG]>[EG] | %3
w: 1.~Oh,|glo- ry to God! Halle- *|lu- * jah to Je- sus! I’m|
w: 2.~I’ve|peace like a riv- er,~be- *|yond * un- der- stand- ing, My|
w: 3.~Let|all praise the Lord, for~His *|good- * ness and mer- cy, He’s|
w: 4.~I|sing and I shout, and *|en- * dea- vor to tell it,|
 (AB)[Ac][Ae] [GB]2 [EG]>[EG] | [DF]2 [E=A]>[Ec] [DB]3 [_AB] | [Ge]2 [Ge]>[Ac] [GB]2 [EG]>[EG] | %6
w: liv- * ing in Ca- naan, the|blood sanc- ti- fies. I’m|shout- ing the vic- tory, while|
w: soul * is o’er- flow- ing by|day and by night; I|ne- ver be- fore could be-|
w: more * to me now than the|loved ones of yore; Sur-|pris- ing me dai- ly with|
w: Re- * joice when I think what|He’s done for my soul;|I’m glad I can wit- ness,|
 ([DF][EG])[FA][Ac] [GB]2 [EG]>[EG] | [DF]2 [FB]>[Bc] [Bd]2 [FB]>[Bd] | %8
w: still * press- ing for- ward, And|on- ward, and up- ward, as|
w: lieve * for such vic- tory While|press- ing the bat- tle down|
w: fresh * gifts from Hea- ven, His|king- ly pro- vi- sion is|
w: oh * glo- ry to Je- sus!|But no- thing ex- press- es|
 [Af]2 [=Ac]>[Ad] [FB]3 [FA] | [FA]2 [=EG][FA] [Ad]2 [Ac]>[AB] | [GB]2 [^F=A][GB] [Ge]2 [GB]>[EG] | %11
w: time swift- ly flies, Temp-|ta- tions are ma- ny and|tri- als are plen- ty, But|
w: here in the fight. The|wa- ters are wild and the|sea rough and storm- y, The|
w: mine more and more. The|en- e- my roars and at-|tempts to de- stroy me, His|
w: the rap- tures that roll.|The right- eous may “smite me,”|I deem it “a kind- ness,”|
 [DF]2 [FA][Ac] [GB]2 [EG]>[EG] | [DF]2 [E=A]>[Ec] [DB]3 [_AB] | [Ge]2 [Ge]>[Ac] [GB]2 [EG]>[EG] | %14
w: Je- sus is with me, I’m|ne- ver a- lone; The|Com- fort- er fills me, my|
w: rocks oft- en threat- en my|soul, tem- pest tossed; The|Spir- it of Je- sus is|
w: plans new- ly laid are a-|wait- ing each day. A|pil- grim, a strang- er, I|
w: Re- bukes I can bear, they|“will not break my head”;|I’ve put on the “armor,” and|
 ([DF][EG])[FA][Ac] [GB]2 [EG]>[EG] | (AB)[Ac][Ae] [GB]2 [Ge]>[Ac] | [Af]2 [Ad]>[AB] [Ge]3 |] %17
w: soul * feels the glo- ry, I’m|thrilled * and en- rap- tured and|jour- ney- ing home.|
w: out * on the wa- ters, He|still- * eth their fu- ry till|safe- ly I’ve crossed.|
w: face * His re- vil- ings, Re-|joice * in the fur- nace and|shout on my way.|
w: Christ * fights my bat- tles, While|I * in my soul, feel the|Con- quer- or’s tread.|
V:2
 x | x8 | x8 | E2 x6 | x8 | x8 | x8 | x8 | x8 | x8 | x8 | x8 | x8 | x8 | x8 | E2 x6 | x7 |] %17
V:3
 B, | [E,B,]2 [E,B,]>[E,E] [E,E]3 ([E,B,]/[E,B,]/) | [B,,B,]2 [B,,B,][B,,D] [E,E]2 [E,B,]>[E,B,] | %3
 [A,C]2 [A,E][A,C] [E,E]2 [E,B,]>[E,B,] | [F,B,]2 [F,,F,]>[F,,F,] [B,,F,]3 [B,,B,] | %5
 [E,B,]2 [E,B,]>[E,E] [E,E]2 [E,B,]>[E,B,] | [B,,B,]2 [B,,B,][B,,D] [E,E]2 [E,B,]>[E,B,] | %7
 [F,B,]2 [F,D]>[F,E] [F,F]2 [F,D]>[F,D] | [F,C]2 [F,E]>[F,D] [B,D]3 B, | B,2 B,B, [B,,B,]2 B,>B, | %10
 [E,E]2 [E,E][E,E] [E,B,]2 [E,E]>[E,B,] | [B,,B,]2 [B,,B,][B,,D] [E,E]2 [E,B,]>[E,B,] | %12
 [F,B,]2 [F,,F,]>[F,,F,] [B,,F,]3 [B,,B,] | [E,B,]2 [E,B,]>[E,E] [E,E]2 [E,B,]>[E,B,] | %14
 [B,,B,]2 [B,,B,][B,,D] [E,E]2 [E,B,]>[E,B,] | [A,C]2 [A,E][A,C] [B,E]2 B,>B, | %16
 [B,,B,]2 [B,,B,]>[B,,B,] [E,B,]3 |] %17
V:4
 B, | x8 | x8 | x8 | x8 | x8 | x8 | x8 | x7 B, | B,2 B,B, x B,>B, x | x8 | x8 | x8 | x8 | x8 | %15
 x6 B,>B, | x7 |] %17

